INCtour-to-git/INCtour-to-git/img/icons/icon-email.svg

<svg width="12" height="12" viewBox="0 0 12 12" fill="none" xmlns="http://www.w3.org/2000/svg">
<path d="M6 0C4.4087 0 2.88258 0.632141 1.75736 1.75736C0.632141 2.88258 0 4.4087 0 6C0 7.5913 0.632141 9.11742 1.75736 10.2426C2.88258 11.3679 4.4087 12 6 12C7.5913 12 9.11742 11.3679 10.2426 10.2426C11.3679 9.11742 12 7.5913 12 6C12 4.4087 11.3679 2.88258 10.2426 1.75736C9.11742 0.632141 7.5913 0 6 0ZM3 3H9C9.10725 3 9.21075 3.02325 9.30675 3.066L6 6.92325L2.69325 3.066C2.78957 3.02222 2.8942 2.99971 3 3ZM2.25 8.25V3.75L2.2515 3.70275L4.4505 6.2685L2.2755 8.4435C2.25832 8.38044 2.24974 8.31535 2.25 8.25ZM9 9H3C2.934 9 2.86875 8.991 2.8065 8.9745L4.941 6.84L6.00075 8.076L7.0605 6.84L9.195 8.9745C9.13194 8.99168 9.06685 9.00026 9.0015 9H9ZM9.75 8.25C9.75 8.316 9.741 8.38125 9.7245 8.4435L7.5495 6.2685L9.7485 3.70275L9.75 3.75V8.25Z" fill="#454545"/>
</svg>

<svg width="12" height="12" fill="none" xmlns="http://www.w3.org/2000/svg"><path d="M6 0a6 6 0 100 12A6 6 0 006 0zM3 3h6c.107 0 .21.023.307.066L6 6.923 2.693 3.066A.736.736 0 013 3zm-.75 5.25v-4.5l.002-.047L4.45 6.269 2.276 8.444a.725.725 0 01-.026-.194zM9 9H3a.757.757 0 01-.193-.025L4.94 6.84 6 8.076 7.06 6.84l2.134 2.135A.725.725 0 019.001 9H9zm.75-.75a.757.757 0 01-.025.194L7.55 6.268l2.199-2.565.001.047v4.5z" fill="#454545"/></svg>
